X: 1
T: Les cinq jumelles
T: The five twins
C: trad
O: Qu\'ebec
R: reel
P: forme: ABABCDE
Z: 2007 John Chambers <jc:trillian.mit.edu> from Pascal Gemme's blog
M: 2/4
L: 1/16
K: D
"A"\
[| d2fd gdfd | Adfd B2cB | Adfd gdfd | Acec d2BB |
y| Adfd gdfd | Adfd BBcB | Adfd gdfd | Acec d2fg |]
"B"\
[| afbf afde | fded B2fg | afbf afde |1 fdec d2fg :|2 fdec d4 |]
"C"\
[| B2AG BDGB | DBAG EEDG | B2AG B2AG |1 FDEF G2GA :|2 FDEF G4 |]
"D"\
|: F2Ad fdAF | G2Bd gg[g2d2] | Acef gecA |1,3 defg afdA :|2 dfec d4 :|4 dfec d2fg |]
"D"\
|: a2fd adfa | g2e=c gceg | a2fd adfa |1,3 geBc d2fg :|2 geBc d2(3fff :|4 geBc d2BB |]
